src/assets/img/icons/twitter.svg

<svg width="24" height="20" viewBox="0 0 24 20" fill="none" xmlns="http://www.w3.org/2000/svg">
<path d="M21.5156 5.125C21.5469 5.25 21.5625 5.45312 21.5625 5.73438C21.5625 7.98438 21.0156 10.1562 19.9219 12.25C18.7969 14.4688 17.2188 16.2344 15.1875 17.5469C12.9688 19.0156 10.4219 19.75 7.54688 19.75C4.79688 19.75 2.28125 19.0156 0 17.5469C0.34375 17.5781 0.734375 17.5938 1.17188 17.5938C3.45312 17.5938 5.5 16.8906 7.3125 15.4844C6.21875 15.4844 5.25 15.1719 4.40625 14.5469C3.59375 13.8906 3.03125 13.0781 2.71875 12.1094C3.03125 12.1406 3.32812 12.1562 3.60938 12.1562C4.04688 12.1562 4.48438 12.1094 4.92188 12.0156C3.79688 11.7656 2.85938 11.1875 2.10938 10.2812C1.35938 9.375 0.984375 8.34375 0.984375 7.1875V7.09375C1.67188 7.5 2.40625 7.71875 3.1875 7.75C2.53125 7.28125 2 6.6875 1.59375 5.96875C1.1875 5.25 0.984375 4.46875 0.984375 3.625C0.984375 2.75 1.21875 1.92188 1.6875 1.14062C2.90625 2.67188 4.39062 3.89063 6.14062 4.79688C7.92188 5.70312 9.8125 6.20312 11.8125 6.29688C11.75 5.92188 11.7188 5.54688 11.7188 5.17188C11.7188 4.29687 11.9375 3.48438 12.375 2.73438C12.8125 1.95312 13.4062 1.34375 14.1562 0.90625C14.9062 0.46875 15.7188 0.25 16.5938 0.25C17.3125 0.25 17.9688 0.390625 18.5625 0.671875C19.1875 0.953125 19.7344 1.32812 20.2031 1.79688C21.3281 1.57812 22.375 1.1875 23.3438 0.625C22.9688 1.78125 22.25 2.6875 21.1875 3.34375C22.125 3.21875 23.0625 2.95313 24 2.54688C23.3125 3.54687 22.4844 4.40625 21.5156 5.125Z" fill="url(#paint0_linear)"/>
<defs>
<linearGradient id="paint0_linear" x1="12" y1="-2" x2="12" y2="22" gradientUnits="userSpaceOnUse">
<stop stop-color="#BC9CFF"/>
<stop offset="1" stop-color="#8BA4F9"/>
</linearGradient>
</defs>
</svg>

<svg xmlns="http://www.w3.org/2000/svg" width="24" height="20" fill="none"><path fill="url(#paint0_linear)" d="M21.52 5.13c.03.12.04.32.04.6 0 2.25-.54 4.43-1.64 6.52a13.52 13.52 0 01-12.38 7.5c-2.74 0-5.26-.73-7.54-2.2.34.03.73.04 1.17.04 2.28 0 4.33-.7 6.14-2.1-1.1 0-2.06-.32-2.9-.94a5.08 5.08 0 01-1.7-2.44 6.24 6.24 0 002.2-.1 4.96 4.96 0 01-2.8-1.73 4.72 4.72 0 01-1.13-3.1V7.1c.7.41 1.43.63 2.2.66A5.46 5.46 0 011.6 5.97a4.75 4.75 0 01.1-4.83A13.65 13.65 0 0011.8 6.3c-.06-.38-.1-.75-.1-1.13 0-.87.23-1.69.66-2.44A4.77 4.77 0 0116.6.25c.72 0 1.38.14 1.97.42.63.28 1.17.66 1.64 1.13 1.13-.22 2.18-.61 3.14-1.18a4.88 4.88 0 01-2.15 2.72c.93-.12 1.87-.39 2.81-.8-.69 1-1.52 1.87-2.48 2.58z"/><defs><linearGradient id="paint0_linear" x1="12" x2="12" y1="-2" y2="22" gradientUnits="userSpaceOnUse"><stop stop-color="#BC9CFF"/><stop offset="1" stop-color="#8BA4F9"/></linearGradient></defs></svg>
